svg/u1f69f.svg

<svg viewBox="0 0 128 128" xmlns="http://www.w3.org/2000/svg">
  <g>
    <line fill="none" stroke="#26A69A" stroke-width="5" stroke-miterlimit="10" x1="31.74" x2="6.38" y1="41.78" y2="9.53"/>
    <polygon points="15.92,17.62 12.02,20.72 8.87,16.72 8.87,15.89 14.61,15.91 " fill="#00796B"/>
    <rect height="32.83" fill="#26A69A" width="5" x="4" y="9.53"/>
    <line fill="none" stroke="#26A69A" stroke-width="5" stroke-miterlimit="10" x1="38.56" x2="63.92" y1="41.78" y2="9.53"/>
    <line fill="none" stroke="#26A69A" stroke-width="5" stroke-miterlimit="10" x1="89.27" x2="63.92" y1="41.78" y2="9.53"/>
    <polygon points="73.47,17.66 69.57,20.76 66.41,16.74 61.42,16.74 58.44,20.54 54.12,17.95 57.89,13.14 69.98,13.14 " fill="#00796B"/>
    <line fill="none" stroke="#26A69A" stroke-width="5" stroke-miterlimit="10" x1="63.92" x2="63.92" y1="9.53" y2="42.36"/>
    <line fill="none" stroke="#26A69A" stroke-width="5" stroke-miterlimit="10" x1="96.1" x2="121.45" y1="41.78" y2="9.53"/>
    <polygon points="119,16.69 116.09,20.38 111.79,17.78 113.28,15.89 119.29,15.91 " fill="#00796B"/>
    <rect height="32.83" fill="#26A69A" width="5" x="119" y="9.53"/>
    <rect height="9.24" fill="#80CBC4" width="120" x="4" y="39.21"/>
    <rect height="12.11" fill="#26A69A" width="120" x="4" y="3.92"/>
    <rect height="2.03" fill="#00796B" width="120" x="4" y="6.55"/>
    <rect height="12.11" fill="#26A69A" width="120" x="4" y="41.12"/>
    <rect height="2.03" fill="#00796B" width="120" x="4" y="43.75"/>
  </g>
  <polygon points="34.6,43.83 34.6,40 29.4,40 29.4,53.23 31.81,53.23 34.6,53.23 35.81,53.23 35.81,43.83 " fill="#00796B"/>
  <polygon points="106,44.76 106,40 100.8,40 100.8,53.23 103.21,53.23 106,53.23 107.2,53.23 107.2,44.76 " fill="#00796B"/>
  <g>
    <circle cx="18.57" cy="33.09" r="8.61" fill="#455A64"/>
    <circle cx="38.01" cy="33.09" r="8.61" fill="#455A64"/>
    <circle cx="18.57" cy="33.09" r="6.09" fill="#607D8B"/>
    <circle cx="38.01" cy="33.09" r="6.09" fill="#607D8B"/>
    <path d="M32,28.25h-7.07c-3.68,0-8.01,1.83-8.01,4.84c0,0.99,0.73,1.79,1.63,1.79c0.9,0,1.63-0.8,1.63-1.79 c0-0.11-0.01-0.22-0.03-0.33c3.05-0.34,3.61,1.86,3.61,3.73v26.34h9.14V36.49c0-1.87,0.82-4.48,3.86-3.73 c-0.02,0.11-0.03,0.21-0.03,0.33c0,0.99,0.73,1.79,1.63,1.79s1.63-0.8,1.63-1.79C40.01,30.08,35.69,28.25,32,28.25z" fill="#82AEC0"/>
    <path d="M20.17,32.76c0,0,2.07-1.1,3.68-0.48c1.6,0.63,1.88,1.79,1.88,3.95v22.49l-2,0 c0,0,0.02-20.5,0.02-22.92C23.75,32.84,20.17,32.76,20.17,32.76z" fill="#C9E3E6"/>
    <path d="M36.79,32.76c0,0-2.07-1.1-3.68-0.48s-1.88,1.79-1.88,3.95v22.49l2,0c0,0-0.02-20.5-0.02-22.92 C33.21,32.84,36.79,32.76,36.79,32.76z" fill="#455A64"/>
  </g>
  <path d="M115,64.97L13,65.42l1.35-2.15c1.77-2.83,4.86-4.54,8.18-4.54h83.05c3.1,0,6.01,1.5,7.83,4.03 L115,64.97z" fill="#82AEC0"/>
  <g>
    <circle cx="89.47" cy="33.09" r="8.61" fill="#455A64"/>
    <circle cx="108.92" cy="33.09" r="8.61" fill="#455A64"/>
    <circle cx="89.47" cy="33.09" r="6.09" fill="#607D8B"/>
    <circle cx="108.92" cy="33.09" r="6.09" fill="#607D8B"/>
    <path d="M102.91,28.25h-7.07c-3.68,0-8.01,1.83-8.01,4.84c0,0.99,0.73,1.79,1.63,1.79s1.63-0.8,1.63-1.79 c0-0.11-0.01-0.22-0.03-0.33c3.05-0.34,3.61,1.86,3.61,3.73v26.34h9.14V36.49c0-1.87,0.82-4.48,3.86-3.73 c-0.02,0.11-0.03,0.21-0.03,0.33c0,0.99,0.73,1.79,1.63,1.79s1.63-0.8,1.63-1.79C110.92,30.08,106.59,28.25,102.91,28.25z" fill="#82AEC0"/>
    <path d="M91.07,32.76c0,0,2.07-1.1,3.68-0.48c1.6,0.63,1.88,1.79,1.88,3.95v22.49l-2,0 c0,0,0.02-20.5,0.02-22.92C94.65,32.84,91.07,32.76,91.07,32.76z" fill="#C9E3E6"/>
    <path d="M107.69,32.76c0,0-2.07-1.1-3.68-0.48c-1.6,0.63-1.88,1.79-1.88,3.95v22.49l2,0 c0,0-0.02-20.5-0.02-22.92C104.11,32.84,107.69,32.76,107.69,32.76z" fill="#455A64"/>
  </g>
  <g>
    <path d="M124,118.8H4V71.95c0-2.73,2.21-4.94,4.94-4.94h110.11c2.73,0,4.94,2.21,4.94,4.94V118.8z" fill="#FFCA28"/>
    <path d="M118.38,67.33H11c-1.05,0-1.91-0.85-1.91-1.91v0c0-1.05,0.85-1.91,1.91-1.91h107.38 c1.05,0,1.91,0.85,1.91,1.91v0C120.29,66.47,119.43,67.33,118.38,67.33z" fill="#78909C"/>
    <rect height="3.3" fill="#FFF59D" width="119.85" x="4.04" y="109.36"/>
    <path d="M113.21,122.2c-6.76,0-94.25,0-101.45,0c-6.8,0-7.77-3.41-7.77-3.41h119.96 C123.96,118.79,123.89,122.2,113.21,122.2z" fill="#9E740B"/>
    <path d="M119.94,65.97H7.57C5.6,65.97,4,67.57,4,69.54v17.15h120V70.03C124,67.79,122.18,65.97,119.94,65.97 z" fill="#E2A610"/>
    <path d="M94.64,119.85H79.9 c-2.09,0-3.79-1.69-3.79-3.79V76.91c0-2.36,1.91-4.27,4.27-4.27h14.26c1.9,0,3.45,1.54,3.45,3.45v40.31 C98.09,118.31,96.54,119.85,94.64,119.85z" fill="#FFCA28" stroke="#9E740B" stroke-width="2" stroke-miterlimit="10"/>
    <g>
      <path d="M92.54,75.9H81.66c-1.47,0-2.66,1.19-2.66,2.66v21.93c0,1.47,1.19,2.66,2.66,2.66h10.88 c1.47,0,2.66-1.19,2.66-2.66V78.56C95.19,77.09,94,75.9,92.54,75.9z" fill="#37474F"/>
      <path d="M91.67,78.44h-8.86c-1.1,0-2,0.9-2,2v18.1c0,1.1,0.9,2,2,2h8.86c1.1,0,2-0.9,2-2v-18.1 C93.67,79.34,92.78,78.44,91.67,78.44z" fill="#BAE2FD"/>
    </g>
    <g>
      <path d="M117.72,75.9h-12.88c-1.47,0-2.66,1.19-2.66,2.66v14.93c0,1.47,1.19,2.66,2.66,2.66h12.88 c1.47,0,2.66-1.19,2.66-2.66V78.56C120.38,77.09,119.19,75.9,117.72,75.9z" fill="#37474F"/>
      <path d="M116.86,78.44H106c-1.1,0-2,0.9-2,2v11.1c0,1.1,0.9,2,2,2h10.86c1.1,0,2-0.9,2-2v-11.1 C118.86,79.34,117.96,78.44,116.86,78.44z" fill="#BAE2FD"/>
    </g>
    <g>
      <path d="M70.04,75.9H57.17c-1.47,0-2.66,1.19-2.66,2.66v14.93c0,1.47,1.19,2.66,2.66,2.66h12.88 c1.47,0,2.66-1.19,2.66-2.66V78.56C72.7,77.09,71.51,75.9,70.04,75.9z" fill="#37474F"/>
      <path d="M69.18,78.44H58.32c-1.1,0-2,0.9-2,2v11.1c0,1.1,0.9,2,2,2h10.86c1.1,0,2-0.9,2-2v-11.1 C71.18,79.34,70.29,78.44,69.18,78.44z" fill="#BAE2FD"/>
    </g>
    <g>
      <path d="M46.21,75.9H33.33c-1.47,0-2.66,1.19-2.66,2.66v14.93c0,1.47,1.19,2.66,2.66,2.66h12.88 c1.47,0,2.66-1.19,2.66-2.66V78.56C48.86,77.09,47.67,75.9,46.21,75.9z" fill="#37474F"/>
      <path d="M45.34,78.44H34.48c-1.1,0-2,0.9-2,2v11.1c0,1.1,0.9,2,2,2h10.86c1.1,0,2-0.9,2-2v-11.1 C47.34,79.34,46.45,78.44,45.34,78.44z" fill="#BAE2FD"/>
    </g>
    <g>
      <path d="M22.37,75.9H9.49c-1.47,0-2.66,1.19-2.66,2.66v14.93c0,1.47,1.19,2.66,2.66,2.66h12.88 c1.47,0,2.66-1.19,2.66-2.66V78.56C25.02,77.09,23.83,75.9,22.37,75.9z" fill="#37474F"/>
      <path d="M21.5,78.44H10.65c-1.1,0-2,0.9-2,2v11.1c0,1.1,0.9,2,2,2H21.5c1.1,0,2-0.9,2-2v-11.1 C23.5,79.34,22.61,78.44,21.5,78.44z" fill="#BAE2FD"/>
    </g>
  </g>
</svg>

<svg viewBox="0 0 128 128" xmlns="http://www.w3.org/2000/svg">
  <defs/>
  <path d="M29.775,43.325 L4.415,11.075 L8.345,7.985 L33.705,40.235 L29.775,43.325 Z" fill="#26A69A"/>
  <path d="M15.92,17.62 L12.02,20.72 L8.87,16.72 L8.87,15.89 L14.61,15.91 Z" fill="#00796B"/>
  <path d="M4,9.53 L9,9.53 L9,42.36 L4,42.36 L4,9.53 Z" fill="#26A69A"/>
  <path d="M36.595,40.235 L61.955,7.985 L65.885,11.075 L40.525,43.325 L36.595,40.235 Z" fill="#26A69A"/>
  <path d="M87.305,43.325 L61.955,11.075 L65.885,7.985 L91.235,40.235 L87.305,43.325 Z" fill="#26A69A"/>
  <path d="M73.47,17.66 L69.57,20.76 L66.41,16.74 L61.42,16.74 L58.44,20.54 L54.12,17.95 L57.89,13.14 L69.98,13.14 Z" fill="#00796B"/>
  <path d="M66.42,9.53 L66.42,42.36 L61.42,42.36 L61.42,9.53 L66.42,9.53 Z" fill="#26A69A"/>
  <path d="M94.135,40.235 L119.485,7.985 L123.415,11.075 L98.065,43.325 L94.135,40.235 Z" fill="#26A69A"/>
  <path d="M119,16.69 L116.09,20.38 L111.79,17.78 L113.28,15.89 L119.29,15.91 Z" fill="#00796B"/>
  <path d="M119,9.53 L124,9.53 L124,42.36 L119,42.36 L119,9.53 Z" fill="#26A69A"/>
  <path d="M4,39.21 L124,39.21 L124,48.45 L4,48.45 L4,39.21 Z" fill="#80CBC4"/>
  <path d="M4,3.92 L124,3.92 L124,16.03 L4,16.03 L4,3.92 Z" fill="#26A69A"/>
  <path d="M4,6.55 L124,6.55 L124,8.58 L4,8.58 L4,6.55 Z" fill="#00796B"/>
  <path d="M4,41.12 L124,41.12 L124,53.23 L4,53.23 L4,41.12 Z" fill="#26A69A"/>
  <path d="M4,43.75 L124,43.75 L124,45.78 L4,45.78 L4,43.75 Z" fill="#00796B"/>
  <path d="M34.6,43.83 L34.6,40 L29.4,40 L29.4,53.23 L31.81,53.23 L34.6,53.23 L35.81,53.23 L35.81,43.83 Z" fill="#00796B"/>
  <path d="M106,44.76 L106,40 L100.8,40 L100.8,53.23 L103.21,53.23 L106,53.23 L107.2,53.23 L107.2,44.76 Z" fill="#00796B"/>
  <path d="M27.18,33.09 A8.61 8.61 0 1 1 9.96,33.09 A8.61 8.61 0 1 1 27.18,33.09 Z" fill="#455A64"/>
  <path d="M46.62,33.09 A8.61 8.61 0 1 1 29.4,33.09 A8.61 8.61 0 1 1 46.62,33.09 Z" fill="#455A64"/>
  <path d="M24.66,33.09 A6.09 6.09 0 1 1 12.48,33.09 A6.09 6.09 0 1 1 24.66,33.09 Z" fill="#607D8B"/>
  <path d="M44.1,33.09 A6.09 6.09 0 1 1 31.92,33.09 A6.09 6.09 0 1 1 44.1,33.09 Z" fill="#607D8B"/>
  <path d="M32,28.25 L24.93,28.25 C21.25,28.25 16.92,30.08 16.92,33.09 C16.92,34.08 17.65,34.88 18.55,34.88 C19.45,34.88 20.18,34.08 20.18,33.09 C20.18,32.98 20.17,32.87 20.15,32.76 C23.2,32.42 23.76,34.62 23.76,36.49 L23.76,62.83 L32.9,62.83 L32.9,36.49 C32.9,34.62 33.72,32.01 36.76,32.76 C36.74,32.87 36.73,32.97 36.73,33.09 C36.73,34.08 37.46,34.88 38.36,34.88 C39.26,34.88 39.99,34.08 39.99,33.09 C40.01,30.08 35.69,28.25 32,28.25 Z" fill="#82AEC0"/>
  <path d="M20.17,32.76 C20.17,32.76 22.24,31.66 23.85,32.28 C25.45,32.91 25.73,34.07 25.73,36.23 L25.73,58.72 L23.73,58.72 C23.73,58.72 23.75,38.22 23.75,35.8 C23.75,32.84 20.17,32.76 20.17,32.76 Z" fill="#C9E3E6"/>
  <path d="M36.79,32.76 C36.79,32.76 34.72,31.66 33.11,32.28 C31.5,32.9 31.23,34.07 31.23,36.23 L31.23,58.72 L33.23,58.72 C33.23,58.72 33.21,38.22 33.21,35.8 C33.21,32.84 36.79,32.76 36.79,32.76 Z" fill="#455A64"/>
  <path d="M115,64.97 L13,65.42 L14.35,63.27 C16.12,60.44 19.21,58.73 22.53,58.73 L105.58,58.73 C108.68,58.73 111.59,60.23 113.41,62.76 L115,64.97 Z" fill="#82AEC0"/>
  <path d="M98.08,33.09 A8.61 8.61 0 1 1 80.86,33.09 A8.61 8.61 0 1 1 98.08,33.09 Z" fill="#455A64"/>
  <path d="M117.53,33.09 A8.61 8.61 0 1 1 100.31,33.09 A8.61 8.61 0 1 1 117.53,33.09 Z" fill="#455A64"/>
  <path d="M95.56,33.09 A6.09 6.09 0 1 1 83.38,33.09 A6.09 6.09 0 1 1 95.56,33.09 Z" fill="#607D8B"/>
  <path d="M115.01,33.09 A6.09 6.09 0 1 1 102.83,33.09 A6.09 6.09 0 1 1 115.01,33.09 Z" fill="#607D8B"/>
  <path d="M102.91,28.25 L95.84,28.25 C92.16,28.25 87.83,30.08 87.83,33.09 C87.83,34.08 88.56,34.88 89.46,34.88 C90.36,34.88 91.09,34.08 91.09,33.09 C91.09,32.98 91.08,32.87 91.06,32.76 C94.11,32.42 94.67,34.62 94.67,36.49 L94.67,62.83 L103.81,62.83 L103.81,36.49 C103.81,34.62 104.63,32.01 107.67,32.76 C107.65,32.87 107.64,32.97 107.64,33.09 C107.64,34.08 108.37,34.88 109.27,34.88 C110.17,34.88 110.9,34.08 110.9,33.09 C110.92,30.08 106.59,28.25 102.91,28.25 Z" fill="#82AEC0"/>
  <path d="M91.07,32.76 C91.07,32.76 93.14,31.66 94.75,32.28 C96.35,32.91 96.63,34.07 96.63,36.23 L96.63,58.72 L94.63,58.72 C94.63,58.72 94.65,38.22 94.65,35.8 C94.65,32.84 91.07,32.76 91.07,32.76 Z" fill="#C9E3E6"/>
  <path d="M107.69,32.76 C107.69,32.76 105.62,31.66 104.01,32.28 C102.41,32.91 102.13,34.07 102.13,36.23 L102.13,58.72 L104.13,58.72 C104.13,58.72 104.11,38.22 104.11,35.8 C104.11,32.84 107.69,32.76 107.69,32.76 Z" fill="#455A64"/>
  <path d="M124,118.8 L4,118.8 L4,71.95 C4,69.22 6.21,67.01 8.94,67.01 L119.05,67.01 C121.78,67.01 123.99,69.22 123.99,71.95 L123.99,118.8 Z" fill="#FFCA28"/>
  <path d="M118.38,67.33 L11,67.33 C9.95,67.33 9.09,66.48 9.09,65.42 L9.09,65.42 C9.09,64.37 9.94,63.51 11,63.51 L118.38,63.51 C119.43,63.51 120.29,64.36 120.29,65.42 L120.29,65.42 C120.29,66.47 119.43,67.33 118.38,67.33 Z" fill="#78909C"/>
  <path d="M4.04,109.36 L123.89,109.36 L123.89,112.66 L4.04,112.66 L4.04,109.36 Z" fill="#FFF59D"/>
  <path d="M113.21,122.2 C106.45,122.2 18.96,122.2 11.76,122.2 C4.96,122.2 3.99,118.79 3.99,118.79 L123.95,118.79 C123.96,118.79 123.89,122.2 113.21,122.2 Z" fill="#9E740B"/>
  <path d="M119.94,65.97 L7.57,65.97 C5.6,65.97 4,67.57 4,69.54 L4,86.69 L124,86.69 L124,70.03 C124,67.79 122.18,65.97 119.94,65.97 Z" fill="#E2A610"/>
  <path d="M94.64,119.85 L79.9,119.85 C77.81,119.85 76.11,118.16 76.11,116.06 L76.11,76.91 C76.11,74.55 78.02,72.64 80.38,72.64 L94.64,72.64 C96.54,72.64 98.09,74.18 98.09,76.09 L98.09,116.4 C98.09,118.31 96.54,119.85 94.64,119.85 Z" fill="#FFCA28"/>
  <path d="M94.64,120.85 L79.9,120.85 Q77.917,120.85 76.515,119.45 Q75.11,118.048 75.11,116.06 L75.11,76.91 Q75.11,74.726 76.653,73.183 Q78.196,71.64 80.38,71.64 L94.64,71.64 Q96.48,71.64 97.784,72.941 Q99.09,74.244 99.09,76.09 L99.09,116.4 Q99.09,118.246 97.784,119.549 Q96.48,120.85 94.64,120.85 Z M94.64,118.85 Q97.09,118.85 97.09,116.4 L97.09,76.09 Q97.09,73.64 94.64,73.64 L80.38,73.64 Q77.11,73.64 77.11,76.91 L77.11,116.06 Q77.11,117.219 77.928,118.035 Q78.744,118.85 79.9,118.85 Z" fill="#9E740B"/>
  <path d="M92.54,75.9 L81.66,75.9 C80.19,75.9 79,77.09 79,78.56 L79,100.49 C79,101.96 80.19,103.15 81.66,103.15 L92.54,103.15 C94.01,103.15 95.2,101.96 95.2,100.49 L95.2,78.56 C95.19,77.09 94,75.9 92.54,75.9 Z" fill="#37474F"/>
  <path d="M91.67,78.44 L82.81,78.44 C81.71,78.44 80.81,79.34 80.81,80.44 L80.81,98.54 C80.81,99.64 81.71,100.54 82.81,100.54 L91.67,100.54 C92.77,100.54 93.67,99.64 93.67,98.54 L93.67,80.44 C93.67,79.34 92.78,78.44 91.67,78.44 Z" fill="#BAE2FD"/>
  <path d="M117.72,75.9 L104.84,75.9 C103.37,75.9 102.18,77.09 102.18,78.56 L102.18,93.49 C102.18,94.96 103.37,96.15 104.84,96.15 L117.72,96.15 C119.19,96.15 120.38,94.96 120.38,93.49 L120.38,78.56 C120.38,77.09 119.19,75.9 117.72,75.9 Z" fill="#37474F"/>
  <path d="M116.86,78.44 L106,78.44 C104.9,78.44 104,79.34 104,80.44 L104,91.54 C104,92.64 104.9,93.54 106,93.54 L116.86,93.54 C117.96,93.54 118.86,92.64 118.86,91.54 L118.86,80.44 C118.86,79.34 117.96,78.44 116.86,78.44 Z" fill="#BAE2FD"/>
  <path d="M70.04,75.9 L57.17,75.9 C55.7,75.9 54.51,77.09 54.51,78.56 L54.51,93.49 C54.51,94.96 55.7,96.15 57.17,96.15 L70.05,96.15 C71.52,96.15 72.71,94.96 72.71,93.49 L72.71,78.56 C72.7,77.09 71.51,75.9 70.04,75.9 Z" fill="#37474F"/>
  <path d="M69.18,78.44 L58.32,78.44 C57.22,78.44 56.32,79.34 56.32,80.44 L56.32,91.54 C56.32,92.64 57.22,93.54 58.32,93.54 L69.18,93.54 C70.28,93.54 71.18,92.64 71.18,91.54 L71.18,80.44 C71.18,79.34 70.29,78.44 69.18,78.44 Z" fill="#BAE2FD"/>
  <path d="M46.21,75.9 L33.33,75.9 C31.86,75.9 30.67,77.09 30.67,78.56 L30.67,93.49 C30.67,94.96 31.86,96.15 33.33,96.15 L46.21,96.15 C47.68,96.15 48.87,94.96 48.87,93.49 L48.87,78.56 C48.86,77.09 47.67,75.9 46.21,75.9 Z" fill="#37474F"/>
  <path d="M45.34,78.44 L34.48,78.44 C33.38,78.44 32.48,79.34 32.48,80.44 L32.48,91.54 C32.48,92.64 33.38,93.54 34.48,93.54 L45.34,93.54 C46.44,93.54 47.34,92.64 47.34,91.54 L47.34,80.44 C47.34,79.34 46.45,78.44 45.34,78.44 Z" fill="#BAE2FD"/>
  <path d="M22.37,75.9 L9.49,75.9 C8.02,75.9 6.83,77.09 6.83,78.56 L6.83,93.49 C6.83,94.96 8.02,96.15 9.49,96.15 L22.37,96.15 C23.84,96.15 25.03,94.96 25.03,93.49 L25.03,78.56 C25.02,77.09 23.83,75.9 22.37,75.9 Z" fill="#37474F"/>
  <path d="M21.5,78.44 L10.65,78.44 C9.55,78.44 8.65,79.34 8.65,80.44 L8.65,91.54 C8.65,92.64 9.55,93.54 10.65,93.54 L21.5,93.54 C22.6,93.54 23.5,92.64 23.5,91.54 L23.5,80.44 C23.5,79.34 22.61,78.44 21.5,78.44 Z" fill="#BAE2FD"/>
</svg>
